icons/snap-svg.svg

<?xml version="1.0" encoding="UTF-8" standalone="no" ?>
<svg width="256px" height="425px" viewBox="0 0 256 425" version="1.1" xmlns="http://www.w3.org/2000/svg" xmlns:xlink="http://www.w3.org/1999/xlink" preserveAspectRatio="xMidYMid">
    <defs>
        <linearGradient x1="50%" y1="-352.925786%" x2="50%" y2="96.7175267%" id="linearGradient-1">
            <stop stop-color="#002E3B" offset="0%"></stop>
            <stop stop-color="#002639" offset="100%"></stop>
        </linearGradient>
        <linearGradient x1="50%" y1="-2.80786187%" x2="50%" y2="428.758892%" id="linearGradient-2">
            <stop stop-color="#002E3B" offset="0%"></stop>
            <stop stop-color="#002639" offset="100%"></stop>
        </linearGradient>
        <radialGradient cx="16.4234038%" cy="142.999709%" fx="16.4234038%" fy="142.999709%" r="295.57111%" id="radialGradient-3">
            <stop stop-color="#00BC85" offset="0%"></stop>
            <stop stop-color="#149D91" offset="100%"></stop>
        </radialGradient>
        <radialGradient cx="16.423338%" cy="-42.999755%" fx="16.423338%" fy="-42.999755%" r="357.003966%" id="radialGradient-4">
            <stop stop-color="#00BC85" offset="0%"></stop>
            <stop stop-color="#149D91" offset="100%"></stop>
        </radialGradient>
        <radialGradient cx="11.4670327%" cy="-40.4580495%" fx="11.4670327%" fy="-40.4580495%" r="343.189366%" id="radialGradient-5">
            <stop stop-color="#004473" offset="0%"></stop>
            <stop stop-color="#00345F" offset="100%"></stop>
        </radialGradient>
    </defs>
    <g>
        <path d="M65.6992339,330.300644 L0.107733463,362.384436 L127.400289,424.384842 L255.039336,362.18981 L189.28052,329.651265 L127.352045,360.40471 L65.6992339,330.300644 Z" fill="url(#linearGradient-1)"></path>
        <path d="M57.6019991,98.1748765 L57.6019991,98.1541795 L127.531267,64.0476413 L197.46571,98.1541795 L255.003891,62.1986373 L127.484698,0 L0,62.1796642 L0,62.2348584 L57.5537042,98.1990237 L57.6019991,98.1748765 L57.6019991,98.1748765 Z" fill="url(#linearGradient-2)"></path>
        <path d="M0.15618046,298.428426 L63.071162,267.624645 L127.784793,299.667263 L0.15618046,362.461971 L0.15618046,298.428426 Z" fill="url(#radialGradient-3)"></path>
        <path d="M196.677541,99.4103235 C196.67754,132.999495 196.677539,200.177839 196.677539,200.177839 L126.336262,234.601641 L191.022434,266.940614 L254.000917,236.143726 L254.00091,62.1907831 L196.677541,98.1665853 L196.677541,99.4103235 Z" fill="url(#radialGradient-4)"></path>
        <path d="M255.003891,298.216498 L57.5889764,199.96591 L57.5889774,98.1815418 L1.42108547e-14,62.2302408 L1.42108547e-14,63.1375243 L1.42108547e-14,235.931797 L255.003891,362.253488 L255.003891,298.216498 Z" fill="url(#radialGradient-5)"></path>
    </g>
</svg>

<svg xmlns="http://www.w3.org/2000/svg" viewBox="0 0 255.039 424.385">
  <defs>
    <radialGradient id="c" cx="18.203" cy="467.789" r="325.181" fx="18.203" fy="467.789" gradientTransform="scale(1.16007 .86202)" gradientUnits="userSpaceOnUse">
      <stop offset="0%" stop-color="#00BC85"/>
      <stop offset="100%" stop-color="#149D91"/>
    </radialGradient>
    <radialGradient id="d" cx="186.547" cy="-20.413" r="577.192" fx="186.547" fy="-20.413" gradientTransform="scale(.78963 1.26642)" gradientUnits="userSpaceOnUse">
      <stop offset="0%" stop-color="#00BC85"/>
      <stop offset="100%" stop-color="#149D91"/>
    </radialGradient>
    <radialGradient id="e" cx="31.718" cy="-54.535" r="949.259" fx="31.718" fy="-54.535" gradientTransform="scale(.92193 1.08469)" gradientUnits="userSpaceOnUse">
      <stop offset="0%" stop-color="#004473"/>
      <stop offset="100%" stop-color="#00345F"/>
    </radialGradient>
    <linearGradient id="a" x1="77.768" x2="77.768" y1="-7.69" y2="691.076" gradientTransform="scale(1.64044 .6096)" gradientUnits="userSpaceOnUse">
      <stop offset="0%" stop-color="#002E3B"/>
      <stop offset="100%" stop-color="#002639"/>
    </linearGradient>
    <linearGradient id="b" x1="79.122" x2="79.122" y1="-4.443" y2="678.485" gradientTransform="scale(1.61146 .62055)" gradientUnits="userSpaceOnUse">
      <stop offset="0%" stop-color="#002E3B"/>
      <stop offset="100%" stop-color="#002639"/>
    </linearGradient>
  </defs>
  <path fill="url(#a)" d="M65.7 330.3.107 362.385l127.292 62 127.64-62.194-65.76-32.539-61.928 30.754z" style="fill:url(#a)"/>
  <path fill="url(#b)" d="M57.602 98.175v-.02l69.93-34.107 69.934 34.106L255.004 62.2 127.484 0 0 62.18v.055l57.554 35.964.048-.024z" style="fill:url(#b)"/>
  <path fill="url(#c)" d="m.156 298.428 62.915-30.803 64.714 32.042L.156 362.462z" style="fill:url(#c)"/>
  <path fill="url(#d)" d="M196.678 99.41v100.768l-70.342 34.424 64.686 32.339 62.979-30.797V62.19l-57.323 35.976z" style="fill:url(#d)"/>
  <path fill="url(#e)" d="m255.004 298.216-197.415-98.25V98.182L0 62.23v173.702l255.004 126.321z" style="fill:url(#e)"/>
</svg>
